X:1
T:The Oxford Tragedy
M:6/4
L:1/4
K:G
 B2E/2-F/2 A2 B| d3/2 B/2e/2 d/2 B3/2 E/2 E| B2 A D2 E| B,3- B,2 D|\
 E2 F D2 E| F/2- E3/2 F A/2 A3/2 E| B3/2- A/2 ^c B/2- A3/2 F| E3- E2 z|\
